blockchains/ethereum/assets/0xF629cBd94d3791C9250152BD8dfBDF380E2a3B9c/logo.svg

<svg fill="none" height="250" viewBox="0 0 250 250" width="250" xmlns="http://www.w3.org/2000/svg" xmlns:xlink="http://www.w3.org/1999/xlink"><clipPath id="a"><path d="m10.4167 10.4165h229.167v229.167h-229.167z"/></clipPath><g clip-path="url(#a)"><path d="m125.081 239.745c63.327 0 114.664-51.337 114.664-114.664 0-63.3276-51.337-114.6645-114.664-114.6645-63.3273 0-114.6643 51.3369-114.6643 114.6645 0 63.327 51.337 114.664 114.6643 114.664z" fill="#7866d5"/><g fill="#fff"><path d="m171.496 69.2853c3.882.4851 7.925.8086 11.806 1.4555 7.602 1.4555 10.189 5.337 8.895 13.0999-.323 2.911-2.587 5.1752-5.498 5.6604-1.779.3235-3.72.4852-5.499.3235-25.229 0-50.297.1617-75.526.1617-3.72 0-7.6015.3234-11.3212.9703-12.453 1.9408-17.3048 7.116-18.2751 19.7304-.4852 5.822-.4852 5.822 5.4987 5.822h100.2706 2.911c1.617 0 3.073.486 4.528 1.294 4.529 2.911 3.397 7.601 3.235 11.806-.162 3.397-2.264 5.337-5.822 5.984-1.456.324-2.911.324-4.529.324-34.286 0-68.572 0-102.8578 0-3.7197 0-3.7197 0-3.3963 3.719.1618 3.397.4852 6.793 1.2939 10.189 1.6172 6.146 5.3369 10.027 11.6443 11.806 6.7925 1.941 13.9089 2.264 20.8629 2.426h73.585c3.073 0 5.984.324 7.925 3.235 3.073 4.851 1.456 11.159-3.396 14.232-.647.485-1.294.808-2.103.97-5.337 1.779-10.835 2.102-16.496 2.264-23.127.485-46.092.485-69.057 0-7.116-.162-14.232-.97-21.1862-2.426-16.3344-3.396-24.5825-11.806-27.3318-28.302-.647-3.72-.9704-7.601-1.4556-11.483v-30.081c.3235-2.911.6469-5.984.9704-8.895 2.1024-18.5983 10.5122-27.8167 28.7873-32.0216 6.4691-1.4555 13.2616-1.779 19.7307-2.4259z"/><path d="m134.623 187.993c-11.645 0-23.127-.162-34.61-.324-7.2775-.162-14.5552-.97-21.6712-2.588-17.6282-3.719-26.6849-13.099-29.596-30.566-.4852-2.749-.8086-5.499-.9703-8.086-.1618-1.132-.3235-2.264-.4852-3.558v-.324-30.404l.3234-2.911c.1618-2.103.4852-4.043.6469-5.984 2.2642-19.8926 11.6444-30.0814 31.2133-34.448 5.1752-1.1321 10.1888-1.6172 15.2023-2.1024 1.6173-.1617 3.2345-.3235 4.8518-.4852h.3234 71.9686.162c1.132.1617 2.425.3235 3.558.3235 2.749.3234 5.498.4851 8.409 1.132 9.219 1.779 12.777 6.9543 11.159 16.3344-.485 4.0432-3.719 7.4395-8.086 8.0864-1.941.3234-3.881.4851-5.984.4851-25.067.1618-50.297.3235-75.364.3235-3.558 0-7.2781.3234-10.8361.9704-11.1591 1.7789-14.8788 5.8221-15.8492 17.1433 0 .97-.1617 1.94-.1617 2.749h2.7493 103.1817c2.102 0 4.205.647 5.984 1.617 5.499 3.558 5.013 8.895 4.69 12.777 0 .485-.162 1.132-.162 1.617-.323 4.528-3.073 7.601-8.086 8.571-1.779.324-3.396.324-5.014.324h-102.6961c-.1617 0-.4852 0-.6469 0v.485.162c.1617 3.396.4852 6.631 1.2938 9.865 1.2938 5.014 4.3666 8.086 9.5419 9.542 6.9542 1.941 14.0703 2.264 20.2153 2.264 19.084.162 38.491.162 57.413.162h16.173c2.426 0 7.44 0 10.351 4.69 1.94 3.073 2.426 6.631 1.617 10.027s-2.911 6.307-5.984 8.248c-.809.485-1.779.97-2.749 1.294-5.984 1.941-12.13 2.264-17.305 2.426-11.483 0-23.127.162-34.771.162zm-81.5106-45.607c.1618 1.132.3235 2.264.3235 3.396.3235 2.588.6469 5.175.9704 7.763 2.5876 15.202 9.8653 22.642 25.0676 25.876 6.7925 1.456 13.7468 2.264 20.7011 2.426 22.803.485 46.092.485 69.057 0 4.69-.162 10.351-.485 15.526-2.103.485-.161.97-.485 1.455-.646 1.618-1.132 2.912-2.75 3.397-4.69.485-1.941.161-3.882-.971-5.661-.97-1.455-2.264-1.941-5.337-1.941h-16.172c-18.761 0-38.329 0-57.413-.161-6.469 0-14.0704-.324-21.6716-2.588-7.2777-1.941-11.806-6.631-13.585-13.908-.8087-3.558-1.2939-7.278-1.2939-10.836v-.162c-.1617-2.264-.3234-3.881.9704-5.337 1.2938-1.455 3.0728-1.455 5.337-1.455h102.8581c1.294 0 2.749 0 4.043-.324 2.588-.485 3.235-1.617 3.396-3.234 0-.647.162-1.132.162-1.779.324-4.044.324-5.984-1.941-7.44-.808-.485-1.94-.808-2.911-.808h-103.5047c-3.558 0-5.6604 0-7.2777-1.618-1.6172-1.617-1.2938-3.881-1.1321-7.277 1.1321-13.9089 6.9543-20.2162 20.7011-22.3187 3.8814-.6469 7.7624-.9703 11.8064-1.1321 25.229 0 50.297-.1617 75.526-.1617 1.779 0 3.396 0 5.013-.3234 1.618-.1618 2.912-1.4556 3.073-3.0729 1.132-6.469-.485-8.5715-6.631-9.8653-2.587-.4852-5.175-.8086-7.762-.9703-1.132-.1618-2.426-.3235-3.558-.3235h-71.4836c-1.6172.1617-3.2345.3235-4.8518.4852-5.0135.4852-9.7036.8086-14.5554 1.9407-16.9813 4.2049-24.4207 12.453-26.3614 29.919-.1617 1.941-.4852 3.882-.6469 5.984l-.3235 2.75z"/></g></g></svg>

<svg width="250" height="250" viewBox="0 0 250 250" fill="none" xmlns="http://www.w3.org/2000/svg">
<g clip-path="url(#clip0_9_678)">
<path d="M125.081 239.745C188.408 239.745 239.745 188.408 239.745 125.081C239.745 61.7534 188.408 10.4165 125.081 10.4165C61.7537 10.4165 10.4167 61.7534 10.4167 125.081C10.4167 188.408 61.7537 239.745 125.081 239.745Z" fill="#7866D5"/>
<path d="M171.496 69.2853C175.378 69.7704 179.421 70.0939 183.302 70.7408C190.904 72.1963 193.491 76.0778 192.197 83.8407C191.874 86.7517 189.61 89.0159 186.699 89.5011C184.92 89.8246 182.979 89.9863 181.2 89.8246C155.971 89.8246 130.903 89.9863 105.674 89.9863C101.954 89.9863 98.0725 90.3097 94.3528 90.9566C81.8998 92.8974 77.048 98.0726 76.0777 110.687C75.5925 116.509 75.5925 116.509 81.5764 116.509H181.847C182.817 116.509 183.788 116.509 184.758 116.509C186.375 116.509 187.831 116.995 189.286 117.803C193.815 120.714 192.683 125.404 192.521 129.609C192.359 133.006 190.257 134.946 186.699 135.593C185.243 135.917 183.788 135.917 182.17 135.917C147.884 135.917 113.598 135.917 79.3122 135.917C75.5925 135.917 75.5925 135.917 75.9159 139.636C76.0777 143.033 76.4011 146.429 77.2098 149.825C78.827 155.971 82.5467 159.852 88.8541 161.631C95.6466 163.572 102.763 163.895 109.717 164.057C134.138 164.057 158.72 164.057 183.302 164.057C186.375 164.057 189.286 164.381 191.227 167.292C194.3 172.143 192.683 178.451 187.831 181.524C187.184 182.009 186.537 182.332 185.728 182.494C180.391 184.273 174.893 184.596 169.232 184.758C146.105 185.243 123.14 185.243 100.175 184.758C93.059 184.596 85.943 183.788 78.9888 182.332C62.6544 178.936 54.4063 170.526 51.657 154.03C51.01 150.31 50.6866 146.429 50.2014 142.547V112.466C50.5249 109.555 50.8483 106.482 51.1718 103.571C53.2742 84.9727 61.684 75.7543 79.9591 71.5494C86.4282 70.0939 93.2207 69.7704 99.6898 69.1235L171.496 69.2853Z" fill="white"/>
<path d="M134.623 187.993C122.978 187.993 111.496 187.831 100.013 187.669C92.7355 187.507 85.4578 186.699 78.3418 185.081C60.7136 181.362 51.6569 171.982 48.7458 154.515C48.2606 151.766 47.9372 149.016 47.7755 146.429C47.6137 145.297 47.452 144.165 47.2903 142.871V142.547V112.143L47.6137 109.232C47.7755 107.129 48.0989 105.189 48.2606 103.248C50.5248 83.3554 59.905 73.1666 79.4739 68.8C84.6491 67.6679 89.6627 67.1828 94.6762 66.6976C96.2935 66.5359 97.9107 66.3741 99.528 66.2124H99.8514H171.82H171.982C173.114 66.3741 174.407 66.5359 175.54 66.5359C178.289 66.8593 181.038 67.021 183.949 67.6679C193.168 69.4469 196.726 74.6222 195.108 84.0023C194.623 88.0455 191.389 91.4418 187.022 92.0887C185.081 92.4121 183.141 92.5738 181.038 92.5738C155.971 92.7356 130.741 92.8973 105.674 92.8973C102.116 92.8973 98.3959 93.2207 94.8379 93.8677C83.6788 95.6466 79.9591 99.6898 78.9887 111.011C78.9887 111.981 78.827 112.951 78.827 113.76C79.4739 113.76 80.606 113.76 81.5763 113.76H184.758C186.86 113.76 188.963 114.407 190.742 115.377C196.241 118.935 195.755 124.272 195.432 128.154C195.432 128.639 195.27 129.286 195.27 129.771C194.947 134.299 192.197 137.372 187.184 138.342C185.405 138.666 183.788 138.666 182.17 138.666H79.4739C79.3122 138.666 78.9887 138.666 78.827 138.666C78.827 138.828 78.827 138.989 78.827 139.151V139.313C78.9887 142.709 79.3122 145.944 80.1208 149.178C81.4146 154.192 84.4874 157.264 89.6627 158.72C96.6169 160.661 103.733 160.984 109.878 160.984C128.962 161.146 148.369 161.146 167.291 161.146H183.464C185.89 161.146 190.904 161.146 193.815 165.836C195.755 168.909 196.241 172.467 195.432 175.863C194.623 179.259 192.521 182.17 189.448 184.111C188.639 184.596 187.669 185.081 186.699 185.405C180.715 187.346 174.569 187.669 169.394 187.831C157.911 187.831 146.267 187.993 134.623 187.993ZM53.1124 142.386C53.2742 143.518 53.4359 144.65 53.4359 145.782C53.7594 148.37 54.0828 150.957 54.4063 153.545C56.9939 168.747 64.2716 176.187 79.4739 179.421C86.2664 180.877 93.2207 181.685 100.175 181.847C122.978 182.332 146.267 182.332 169.232 181.847C173.922 181.685 179.583 181.362 184.758 179.744C185.243 179.583 185.728 179.259 186.213 179.098C187.831 177.966 189.125 176.348 189.61 174.408C190.095 172.467 189.771 170.526 188.639 168.747C187.669 167.292 186.375 166.806 183.302 166.806H167.13C148.369 166.806 128.801 166.806 109.717 166.645C103.248 166.645 95.6466 166.321 88.0454 164.057C80.7677 162.116 76.2394 157.426 74.4604 150.149C73.6517 146.591 73.1665 142.871 73.1665 139.313V139.151C73.0048 136.887 72.8431 135.27 74.1369 133.814C75.4307 132.359 77.2097 132.359 79.4739 132.359H182.332C183.626 132.359 185.081 132.359 186.375 132.035C188.963 131.55 189.61 130.418 189.771 128.801C189.771 128.154 189.933 127.669 189.933 127.022C190.257 122.978 190.257 121.038 187.992 119.582C187.184 119.097 186.052 118.774 185.081 118.774H81.5763C78.0183 118.774 75.9159 118.774 74.2986 117.156C72.6814 115.539 73.0048 113.275 73.1665 109.879C74.2986 95.9701 80.1208 89.6628 93.8676 87.5603C97.749 86.9134 101.63 86.59 105.674 86.4282C130.903 86.4282 155.971 86.2665 181.2 86.2665C182.979 86.2665 184.596 86.2665 186.213 85.9431C187.831 85.7813 189.125 84.4875 189.286 82.8702C190.418 76.4012 188.801 74.2987 182.655 73.0049C180.068 72.5197 177.48 72.1963 174.893 72.0346C173.761 71.8728 172.467 71.7111 171.335 71.7111H99.8514C98.2342 71.8728 96.6169 72.0346 94.9996 72.1963C89.9861 72.6815 85.296 73.0049 80.4442 74.137C63.4629 78.3419 56.0235 86.59 54.0828 104.056C53.9211 105.997 53.5976 107.938 53.4359 110.04L53.1124 112.79V142.386Z" fill="white"/>
</g>
<defs>
<clipPath id="clip0_9_678">
<rect width="229.167" height="229.167" fill="white" transform="translate(10.4167 10.4165)"/>
</clipPath>
</defs>
</svg>
